X:130
T:The New Town of Edinburgh
C:Iain MacPhail ()
S:Radio Scotland, Dec 1991
N:As played by the Iain MacPhail Band
Z:Nigel Gatherer
M:4/4
L:1/8
K:E
z2|e2 de ceBA|GABA GEBd|e2 de ceBe|AeGe F3 B|
e2 de ceBA|GABA GBGE|CEAc dBcd|eEED E2:|
B2|G2 =G^G FGEF|GEGB AGFE|A2 GA =GAF^G|AGAB cBce|
G2 =G^G FGEF|GEGB AGFE|CEAc dBcd|eEED E2:|
